X: 1
T:Francis Murray
M:6/8
L:1/8
Q:80
C:Robt Mathieson
S:March
K:HP
{g}A|
{Gdc}d2f{g}A3/2d/2{g}f|
a3/2d/2f{gef}e2A|
{gcd}c2e{g}A3/2{d}c/2e|  !
{g}c/2e3/2{g}A{a}a3/2e/2c|
{Gdc}d2f{g}A3/2d/2{g}f|
a3/2d/2f{gef}e2f|  !
{a}g2A{GAG}A3/2e{g}c|
a3/2c/2e{Gdc}d2:|
g|  !
{ag}a2f{g}d3/2f/2{g}A|
a3/2d/2f{gef}e2f|
{gf}g2e{g}c3/2e/2{g}A|  !
{d}c/2e3/2{g}A{a}a3/2f/2{g}e|
{ag}a2f{g}d3/2f/2{g}A|
{g}d3/2f/2a{g}a3/2e/2f|  !
{a}g2A{GAG}A3/2e{g}c|
a3/2c/2e{Gdc}d2:|
{g}A|  !
{Gdc}d2f{g}A3/2d/2f|
{g}d3/2f/2a{g}a3/2f/2d|
{gcd}c2e{g}A3/2{d}c/2e|  !
{g}c/2e3/2{g}A{a}a3/2e/2c|
{Gdc}d2f{g}A3/2d/2f|
{g}d/2f3/2{g}Aa3/2e/2f|  !
{a}g2A{GAG}A3/2e{g}c|
a3/2c/2e{Gdc}d2:|
e|  !
{g}f2a{Gdc}d2a|
{gcd}c2a{g}a3/2e/2c|
{gBd}B2g{AGAG}A2a|  !
{g}a3/2f/2d{gef}e2A|1
{g}f2a{Gdc}d2a|
{gcd}c2a{g}a3/2e/2f|  !
{a}g2A{GAG}A3/2e{g}c|
a3/2c/2e{Gdc}d2:|2
{g}f3/2g/2ad3/2f/2a|  !
c3/2e/2aA3/2{d}c/2a|
G3/2g/2e{g}A3/2e/2{g}c|
a3/2c/2e{Gdc}d2|]  !
